static/media/facebook.a19f6475.svg

<?xml version="1.0" encoding="UTF-8"?>
<svg xmlns="http://www.w3.org/2000/svg" xmlns:xlink="http://www.w3.org/1999/xlink" viewBox="0 0 100 100" width="100px" height="100px">
<g id="surface7957347">
<path style=" stroke:none;fill-rule:nonzero;fill:rgb(100%,100%,100%);fill-opacity:1;" d="M 50 6 C 25.699219 6 6 25.699219 6 50 C 6 72.058594 22.25 90.273438 43.425781 93.457031 L 43.425781 61.660156 L 32.539062 61.660156 L 32.539062 50.097656 L 43.425781 50.097656 L 43.425781 42.398438 C 43.425781 29.65625 49.632812 24.0625 60.222656 24.0625 C 65.292969 24.0625 67.976562 24.441406 69.246094 24.613281 L 69.246094 34.707031 L 62.023438 34.707031 C 57.527344 34.707031 55.957031 38.96875 55.957031 43.773438 L 55.957031 50.097656 L 69.132812 50.097656 L 67.34375 61.660156 L 55.957031 61.660156 L 55.957031 93.550781 C 77.433594 90.636719 94 72.273438 94 50 C 94 25.699219 74.300781 6 50 6 Z M 50 6 "/>
</g>
</svg>

<svg xmlns="http://www.w3.org/2000/svg" width="100" height="100"><path style="stroke:none;fill-rule:nonzero;fill:#fff;fill-opacity:1" d="M50 6C25.7 6 6 25.7 6 50c0 22.059 16.25 40.273 37.426 43.457V61.66H32.539V50.098h10.887v-7.7c0-12.742 6.207-18.336 16.797-18.336 5.07 0 7.754.38 9.023.551v10.094h-7.223c-4.496 0-6.066 4.262-6.066 9.066v6.325h13.176l-1.79 11.562H55.958v31.89C77.434 90.638 94 72.274 94 50 94 25.7 74.3 6 50 6Zm0 0"/></svg>
